packages/tokens/icons/generateReport/size32Px.svg

<svg viewBox="0 0 32 32" fill="none" xmlns="http://www.w3.org/2000/svg" width="1em" height="1em"><path d="M26 29.5H6C5.17157 29.5 4.5 28.8284 4.5 28L4.5 4C4.5 3.17157 5.17157 2.5 6 2.5L18.1716 2.5C18.5694 2.5 18.9509 2.65803 19.2322 2.93934L27.0607 10.7678C27.342 11.0491 27.5 11.4306 27.5 11.8284V28C27.5 28.8284 26.8284 29.5 26 29.5Z" stroke="currentColor"/><path d="M18.5054 2.5V9.5216C18.5054 10.6262 19.4009 11.5216 20.5054 11.5216H27.5" stroke="currentColor"/><path d="M12 16.5555H20M16 13L16 21" stroke="currentColor" stroke-linecap="round"/></svg>

<svg xmlns="http://www.w3.org/2000/svg" fill="none" viewBox="0 0 32 32" width="1em" height="1em"><path stroke="currentColor" d="M26 29.5H6A1.5 1.5 0 0 1 4.5 28V4A1.5 1.5 0 0 1 6 2.5h12.172a1.5 1.5 0 0 1 1.06.44l7.829 7.828a1.5 1.5 0 0 1 .439 1.06V28a1.5 1.5 0 0 1-1.5 1.5Z"/><path stroke="currentColor" d="M18.505 2.5v7.022a2 2 0 0 0 2 2H27.5"/><path stroke="currentColor" stroke-linecap="round" d="M12 16.555h8M16 13v8"/></svg>
